img/close.svg

<svg fill="none" height="28" viewBox="0 0 28 28" width="28" xmlns="http://www.w3.org/2000/svg"><g fill="#70a582"><path d="m9.41908 4.59597c-1.09615-1.09614-2.87336-1.09614-3.9695 0-1.09615 1.09615-1.09615 2.87336 0 3.9695l14.41582 14.41583c1.0961 1.0961 2.8733 1.0961 3.9695 0 1.0961-1.0962 1.0961-2.8734 0-3.9695z" stroke="#fdfcf7" stroke-linecap="round" stroke-width="3"/><path clip-rule="evenodd" d="m5.92409 21.9207c-.51036-.5104-.51036-1.3378 0-1.8482l14.41581-14.4158c.5103-.51036 1.3378-.51036 1.8482 0 .5103.51036.5103 1.33782 0 1.84818l-14.41583 14.41582c-.51036.5103-1.33782.5103-1.84818 0z" fill-rule="evenodd"/><path d="m4.86343 19.0118c-1.09615 1.0962-1.09615 2.8734 0 3.9695 1.09615 1.0962 2.87335 1.0962 3.9695 0l14.41577-14.41576c1.0962-1.09615 1.0962-2.87335 0-3.9695-1.0961-1.09615-2.8733-1.09615-3.9695 0z" stroke="#fdfcf7" stroke-linecap="round" stroke-width="3"/></g></svg>

<svg width="28" height="28" viewBox="0 0 28 28" fill="none" xmlns="http://www.w3.org/2000/svg">
<path d="M9.41908 4.59597C8.32293 3.49983 6.54572 3.49983 5.44958 4.59597C4.35343 5.69212 4.35343 7.46933 5.44958 8.56547L19.8654 22.9813C20.9615 24.0774 22.7387 24.0774 23.8349 22.9813C24.931 21.8851 24.931 20.1079 23.8349 19.0118L9.41908 4.59597Z" fill="#70A582" stroke="#FDFCF7" stroke-width="3" stroke-linecap="round"/>
<path fill-rule="evenodd" clip-rule="evenodd" d="M5.92409 21.9207C5.41373 21.4103 5.41373 20.5829 5.92409 20.0725L20.3399 5.6567C20.8502 5.14634 21.6777 5.14634 22.1881 5.6567C22.6984 6.16706 22.6984 6.99452 22.1881 7.50488L7.77227 21.9207C7.26191 22.431 6.43445 22.431 5.92409 21.9207Z" fill="#70A582"/>
<path d="M4.86343 19.0118C3.76728 20.108 3.76728 21.8852 4.86343 22.9813C5.95958 24.0775 7.73678 24.0775 8.83293 22.9813L23.2487 8.56554C24.3449 7.46939 24.3449 5.69219 23.2487 4.59604C22.1526 3.49989 20.3754 3.49989 19.2792 4.59604L4.86343 19.0118Z" fill="#70A582" stroke="#FDFCF7" stroke-width="3" stroke-linecap="round"/>
</svg>
